src/22/actions/labplot-xy-plot-two-axes.svg

<svg xmlns="http://www.w3.org/2000/svg" viewBox="0 0 22 22">
  <defs id="defs3051">
    <style type="text/css" id="current-color-scheme">
      .ColorScheme-Text {
        color:#5d656b
      }
      </style>
  </defs>
 <path 
     style="fill:currentColor;fill-opacity:1;stroke:none" 
     d="M 4 3 L 4 9 L 4 10 L 4 12 L 4 13 L 4 17 L 3 17 L 3 18 L 4 18 L 4 19 L 5 19 L 5 18 L 17.71875 18 L 19 18 L 19 17.84375 L 19 17 L 18.15625 17 L 17.96875 16.8125 L 17.125 16 L 15.84375 14.6875 L 15.125 14 L 13 16.09375 L 11.6875 14.8125 L 10.875 14 L 8.875 12 L 7 12 L 6 12 L 5 12 L 5 10 L 6 10 L 7 10 L 8.875 10 L 10.875 8 L 11.6875 7.15625 L 13 5.875 L 15.125 8 L 17.125 6 L 17.96875 5.15625 L 19 4.125 L 19 3.90625 L 18.78125 3.90625 L 18.28125 3.4375 L 17.25 4.46875 L 16.4375 5.28125 L 15.125 6.59375 L 13 4.46875 L 11.46875 6 L 11 6.46875 L 10.15625 7.28125 L 8.46875 9 L 7 9 L 6 9 L 5 9 L 5 3 L 4 3 z M 5 13 L 6 13 L 7 13 L 8.46875 13 L 10.15625 14.6875 L 11 15.53125 L 11.46875 16 L 12.46875 17 L 5 17 L 5 13 z M 15.125 15.40625 L 16.4375 16.6875 L 16.732422 17 L 13.53125 17 L 15.125 15.40625 z "
     class="ColorScheme-Text"
     />
</svg>

<svg xmlns="http://www.w3.org/2000/svg" viewBox="0 0 22 22"><path d="M4 3v14H3v1h1v1h1v-1h14v-1h-.844l-.187-.188-.844-.812-1.281-1.313-.719-.687L13 16.094l-1.313-1.282-.812-.812-2-2H5v-2h3.875l2-2 .813-.844L13 5.875 15.125 8l2-2 .844-.844L19 4.125v-.219h-.219l-.5-.469L17.25 4.47l-.813.812-1.312 1.313L13 4.469 11.469 6 11 6.469l-.844.812L8.47 9H5V3H4zm1 10H8.469l1.687 1.688.844.843.469.469 1 1H5v-4zm10.125 2.406l1.313 1.281.294.313h-3.2l1.593-1.594z" fill="currentColor" color="#5d656b"/></svg>
